assets/symbols/mulberry/copy.svg

<svg height="850.394" viewBox="0 0 850.394 850.394" width="850.394" xmlns="http://www.w3.org/2000/svg"><g fill="#ffffc2"><path d="m326.27 239.35v370.21h-170.06v-544.9h242.95v127.55h115.39v47.14zm242.95 0 115.41 127.55h-115.41z"/><path d="m399.16 64.66 115.39 127.55h-115.39zm115.39 174.69h54.67v127.55h115.41v417.35h-358.36v-544.9z"/></g><g fill="none"><g stroke="#231f20" stroke-width="21"><path d="m514.55 239.93v-47.72l-115.39-127.55h-242.95v544.9h168.07"/><path d="m399.16 63.79v128.42h115.39m-305.99 70.28h115.25m-116.41 98.34h114.1m-114.1 99.49h115.26m246.56-220.97h-242.95v544.9h358.36v-417.35z"/><path d="m569.22 238.48v128.42h115.41m-306.01 70.28h255.68m-256.84 98.33h255.69m-255.69 99.5h255.69"/></g><path d="m0 0h850.394v850.394h-850.394z"/></g></svg>

<svg xmlns="http://www.w3.org/2000/svg" width="850.394" height="850.394" viewBox="0 0 850.394 850.394" overflow="visible"><g fill="#ffffc2"><path d="M326.27 239.35v370.21H156.21V64.66h242.95v127.55h115.39v47.14zM569.22 239.35L684.63 366.9H569.22z"/><path d="M399.16 64.66l115.39 127.55H399.16zM514.55 239.35h54.67V366.9h115.41v417.35H326.27v-544.9z"/></g><g fill="none" stroke="#231f20" stroke-width="21"><path d="M514.55 239.93v-47.72L399.16 64.66H156.21v544.9h168.07"/><path d="M399.16 63.79v128.42h115.39M208.56 262.49h115.25M207.4 360.83h114.1M207.4 460.32h115.26M569.22 239.35H326.27v544.9h358.36V366.9z"/><path d="M569.22 238.48V366.9h115.41M378.62 437.18H634.3M377.46 535.51h255.69M377.46 635.01h255.69"/></g><path fill="none" d="M0 0h850.394v850.394H0z"/></svg>
